X: 5206
T: British Grenadiers' March
R: polka
M: 2/4
K: Dmajor
dA de|fg/f/ ef/g/|ad f/e/d/c/|d/D/E/F/ G/A/B/c/|
dA de|fg/f/ ef/g/|Ad f/e/d/c/|d3:|
a>b ag|f>g aa|bb a/g/f/e/|e2 cA|
dc/d/ ed/e/|fe/f/ gf/g/|ad f/e/d/c/|d3:|

